X: 59
T:Harvest Home
R:Hornpipe
S:Charlie Lennon, Boston 1997
Z:Added from memory by Alf.warnock@rogers.com
M:4/4
L:1/8
K:D
AF|DFAF DGBG|FAde fdAF|GBef gfgf|edcB AGFE|
DFAF DGBG|FAde fdAF|GBef gecd|e2d2 d2:|
gf|eA (3cBA E2ef|gafg eA (3cBA|E2ef gafg|edcB AGFE|
DFAF DGBG|FAde fdAF|GBef gecd|e2d2 d2:|

